Humanity/apps/48/preferences-desktop-wallpaper.svg

<?xml version="1.0" encoding="UTF-8" standalone="no"?>
<!-- Created with Inkscape (http://www.inkscape.org/) -->

<svg
   xmlns:svg="http://www.w3.org/2000/svg"
   xmlns="http://www.w3.org/2000/svg"
   xmlns:xlink="http://www.w3.org/1999/xlink"
   version="1.1"
   width="48"
   height="48"
   id="svg3876">
  <defs
     id="defs3878">
    <linearGradient
       id="linearGradient8589-3">
      <stop
         id="stop8591-8"
         style="stop-color:#fefefe;stop-opacity:1"
         offset="0" />
      <stop
         id="stop8593-0"
         style="stop-color:#cbcbcb;stop-opacity:1"
         offset="1" />
    </linearGradient>
    <linearGradient
       id="linearGradient3738-7">
      <stop
         id="stop3742-9"
         style="stop-color:white;stop-opacity:1"
         offset="0" />
      <stop
         id="stop3750-9"
         style="stop-color:white;stop-opacity:0"
         offset="0.85612506" />
      <stop
         id="stop3744-3"
         style="stop-color:white;stop-opacity:0"
         offset="1" />
    </linearGradient>
    <linearGradient
       id="linearGradient7012-661-145-733-759-865-745-661-970-94">
      <stop
         id="stop3618"
         style="stop-color:#edd563;stop-opacity:1"
         offset="0" />
      <stop
         id="stop3620"
         style="stop-color:#e08223;stop-opacity:1"
         offset="1" />
    </linearGradient>
    <linearGradient
       id="linearGradient3390-178-986-453">
      <stop
         id="stop3624"
         style="stop-color:#bf8556;stop-opacity:1"
         offset="0" />
      <stop
         id="stop3626"
         style="stop-color:#bb7937;stop-opacity:1"
         offset="1" />
    </linearGradient>
    <linearGradient
       id="linearGradient9936">
      <stop
         id="stop9938"
         style="stop-color:#333;stop-opacity:1"
         offset="0" />
      <stop
         id="stop9940"
         style="stop-color:#575757;stop-opacity:1"
         offset="1" />
    </linearGradient>
    <linearGradient
       id="linearGradient5233">
      <stop
         id="stop5235"
         style="stop-color:#3c3c3c;stop-opacity:1"
         offset="0" />
      <stop
         id="stop5237"
         style="stop-color:#282828;stop-opacity:1"
         offset="1" />
    </linearGradient>
    <linearGradient
       id="linearGradient10691">
      <stop
         id="stop10693"
         style="stop-color:black;stop-opacity:1"
         offset="0" />
      <stop
         id="stop10695"
         style="stop-color:black;stop-opacity:0"
         offset="1" />
    </linearGradient>
    <linearGradient
       id="linearGradient6602">
      <stop
         id="stop6604"
         style="stop-color:white;stop-opacity:1"
         offset="0" />
      <stop
         id="stop6606"
         style="stop-color:white;stop-opacity:0"
         offset="1" />
    </linearGradient>
    <linearGradient
       id="linearGradient6544">
      <stop
         id="stop6546"
         style="stop-color:#f0f0f0;stop-opacity:1"
         offset="0" />
      <stop
         id="stop6548"
         style="stop-color:#d2d2d2;stop-opacity:1"
         offset="1" />
    </linearGradient>
    <linearGradient
       id="linearGradient6620">
      <stop
         id="stop6622"
         style="stop-color:#787878;stop-opacity:1"
         offset="0" />
      <stop
         id="stop6624"
         style="stop-color:#bebebe;stop-opacity:1"
         offset="0.35046947" />
      <stop
         id="stop6626"
         style="stop-color:#c8c8c8;stop-opacity:1"
         offset="0.58326507" />
      <stop
         id="stop6628"
         style="stop-color:#e6e6e6;stop-opacity:1"
         offset="0.72270131" />
      <stop
         id="stop6630"
         style="stop-color:#8c8c8c;stop-opacity:1"
         offset="1" />
    </linearGradient>
    <linearGradient
       id="linearGradient6732">
      <stop
         id="stop6734"
         style="stop-color:#505050;stop-opacity:1"
         offset="0" />
      <stop
         id="stop6736"
         style="stop-color:#a0a0a0;stop-opacity:1"
         offset="0.35046947" />
      <stop
         id="stop6738"
         style="stop-color:#aaa;stop-opacity:1"
         offset="0.58326507" />
      <stop
         id="stop6740"
         style="stop-color:#bebebe;stop-opacity:1"
         offset="0.72270131" />
      <stop
         id="stop6742"
         style="stop-color:#6e6e6e;stop-opacity:1"
         offset="1" />
    </linearGradient>
    <linearGradient
       x1="17.355219"
       y1="8.000001"
       x2="24.007845"
       y2="26.039217"
       id="linearGradient2888"
       xlink:href="#linearGradient3738-7"
       gradientUnits="userSpaceOnUse"
       gradientTransform="matrix(1.0564759,0,0,0.9978261,-1.3637136,-1.9826083)" />
    <radialGradient
       cx="15.748835"
       cy="8.2827015"
       r="20.999998"
       fx="15.748835"
       fy="8.2827015"
       id="radialGradient2891"
       xlink:href="#linearGradient7012-661-145-733-759-865-745-661-970-94"
       gradientUnits="userSpaceOnUse"
       gradientTransform="matrix(0,0.8620801,-1.5782154,0,27.397797,1.3041849)" />
    <linearGradient
       x1="-51.090134"
       y1="6.8981924"
       x2="-28.956181"
       y2="6.8981924"
       id="linearGradient2893"
       xlink:href="#linearGradient3390-178-986-453"
       gradientUnits="userSpaceOnUse"
       gradientTransform="matrix(0.9070364,0,0,0.8438248,50.363623,1.217483)"
       spreadMethod="reflect" />
    <linearGradient
       x1="36.602821"
       y1="35.296234"
       x2="36.602821"
       y2="1.9060003"
       id="linearGradient2896"
       xlink:href="#linearGradient9936"
       gradientUnits="userSpaceOnUse"
       gradientTransform="matrix(0.9007066,0,0,0.838392,2.2852094,3.4119952)" />
    <linearGradient
       x1="-51.090134"
       y1="6.8981924"
       x2="-28.956181"
       y2="6.8981924"
       id="linearGradient2898"
       xlink:href="#linearGradient5233"
       gradientUnits="userSpaceOnUse"
       gradientTransform="matrix(0.9075685,0,0,0.8446182,50.371157,1.2074385)"
       spreadMethod="reflect" />
    <radialGradient
       cx="0.99999994"
       cy="5.5642838"
       r="22.999998"
       fx="0.99999994"
       fy="5.5642838"
       id="radialGradient2901"
       xlink:href="#linearGradient6602"
       gradientUnits="userSpaceOnUse"
       gradientTransform="matrix(0.9555509,0,0,0.6971467,1.0667785,7.8456642)" />
    <linearGradient
       x1="20.147005"
       y1="-0.00049710274"
       x2="20.103531"
       y2="31.98299"
       id="linearGradient2904"
       xlink:href="#linearGradient6544"
       gradientUnits="userSpaceOnUse"
       gradientTransform="matrix(0.959002,0,0,1.0656257,0.9836815,1.9502578)" />
    <radialGradient
       cx="24.000004"
       cy="38.641167"
       r="7.9999971"
       fx="24.000004"
       fy="38.641167"
       id="radialGradient2907"
       xlink:href="#linearGradient6602"
       gradientUnits="userSpaceOnUse"
       gradientTransform="matrix(1.8286406,-3.1440363e-8,0,0.4381505,-19.887387,26.069353)" />
    <linearGradient
       x1="320.28125"
       y1="86.913208"
       x2="320.28125"
       y2="93.379616"
       id="linearGradient2910"
       xlink:href="#linearGradient6620"
       gradientUnits="userSpaceOnUse"
       gradientTransform="matrix(0.9964089,0,0,1.0001438,-294.882,-51.012717)" />
    <linearGradient
       x1="21.71751"
       y1="35.909012"
       x2="21.686279"
       y2="42.361362"
       id="linearGradient2912"
       xlink:href="#linearGradient6732"
       gradientUnits="userSpaceOnUse" />
    <radialGradient
       cx="6.702713"
       cy="73.615715"
       r="7.228416"
       fx="6.702713"
       fy="73.615715"
       id="radialGradient2915"
       xlink:href="#linearGradient10691"
       gradientUnits="userSpaceOnUse"
       gradientTransform="matrix(1.9368007,0,0,0.4150287,11.018182,12.447365)" />
    <linearGradient
       x1="32.892288"
       y1="8.0590115"
       x2="36.358372"
       y2="5.4565363"
       id="linearGradient3692"
       xlink:href="#linearGradient8589-3"
       gradientUnits="userSpaceOnUse"
       gradientTransform="matrix(1.3447251,0,0,1.4377551,-12.568462,2.9625972)" />
  </defs>
  <path
     d="m 38,43 c 0,1.656855 -6.268014,3 -14.000001,3 C 16.268013,46 10,44.656855 10,43 10,41.343146 16.268013,40 23.999999,40 31.731986,40 38,41.343146 38,43 l 0,0 z"
     id="path2589"
     style="opacity:0.5;fill:url(#radialGradient2915);fill-opacity:1;fill-rule:nonzero;stroke:none;stroke-width:0.80000001;marker:none;visibility:visible;display:inline;overflow:visible" />
  <path
     d="m 18.488603,31.499143 c 0,0 0,7.001 0,7.001 -0.02202,1.80223 -1.86851,3.00043 -1.86851,3.00043 -0.74866,0.08844 -1.12096,0.44607 -1.12096,1.00015 0,0.55408 0.50401,1.00014 1.12096,1.00014 l 14.7598,0 c 0.61695,0 1.12096,-0.44606 1.12096,-1.00014 0,-0.55408 -0.3723,-0.91171 -1.12096,-1.00015 0,0 -1.84649,-1.1982 -1.86851,-3.00043 0,0 0,-7.001 0,-7.001 l -11.02278,0 z"
     id="path4675"
     style="fill:url(#linearGradient2910);fill-opacity:1;stroke:url(#linearGradient2912);stroke-width:0.99827462;stroke-linecap:round;stroke-linejoin:round;stroke-miterlimit:4;stroke-opacity:1;stroke-dasharray:none;stroke-dashoffset:0.50000001;display:inline;enable-background:new" />
  <rect
     width="15.999994"
     height="1.0000002"
     rx="0.44444439"
     ry="0.50000012"
     x="16.000002"
     y="41.999954"
     id="rect4703"
     style="opacity:0.8;fill:url(#radialGradient2907);fill-opacity:1;stroke:none;display:inline;enable-background:new" />
  <rect
     width="44.99976"
     height="32.99976"
     rx="1"
     ry="1"
     x="1.5001197"
     y="2.5001206"
     id="rect2722"
     style="fill:url(#linearGradient2904);fill-opacity:1;stroke:#aaa;stroke-width:1.00023937;stroke-linecap:round;stroke-linejoin:round;stroke-miterlimit:4;stroke-opacity:1;stroke-dasharray:none;stroke-dashoffset:0.50000001" />
  <rect
     width="42.999718"
     height="30.999718"
     rx="0"
     ry="0"
     x="2.5001411"
     y="3.5001411"
     id="rect4642"
     style="fill:none;stroke:url(#radialGradient2901);stroke-width:1.00028229;stroke-linecap:round;stroke-linejoin:round;stroke-miterlimit:4;stroke-opacity:1;stroke-dasharray:none;stroke-dashoffset:0.50000001;display:inline;enable-background:new" />
  <path
     d="m 4.4806177,5.493971 c 13.0076333,0 26.0152653,0 39.0228973,0 0,9.008471 0,18.01694 0,27.025412 -13.007632,0 -26.015264,0 -39.0228973,0 0,-9.008472 0,-18.016941 0,-27.025412 l 0,0 z"
     id="path2514-7"
     style="fill:url(#linearGradient2896);fill-opacity:1;fill-rule:evenodd;stroke:url(#linearGradient2898);stroke-width:0.96123546;stroke-linecap:round;stroke-linejoin:round;stroke-miterlimit:4;stroke-opacity:1;stroke-dasharray:none;stroke-dashoffset:0;marker:none;visibility:visible;display:inline;overflow:visible;enable-background:accumulate" />
  <path
     d="m 4.4999888,5.4999884 c 9.2969302,0 13.0120872,0 22.3090162,0 2.789936,0.757854 16.691007,12.3443576 16.691007,14.1599016 0,5.060771 0,7.779348 0,12.840121 -13.000007,0 -26.000014,0 -39.0000232,0 0,-9.000009 0,-18.000015 0,-27.0000226 l 0,0 z"
     id="path2514"
     style="fill:url(#radialGradient2891);fill-opacity:1;fill-rule:evenodd;stroke:url(#linearGradient2893);stroke-width:0.99997753;stroke-linecap:round;stroke-linejoin:round;stroke-miterlimit:4;stroke-opacity:1;stroke-dasharray:none;stroke-dashoffset:0;marker:none;visibility:visible;display:inline;overflow:visible;enable-background:accumulate" />
  <path
     d="M 5,6.0313035 5,24 C 6.8095241,23.570571 42.405805,13.527188 42.999991,12.99652 L 43,6 5,6.0313035 z"
     id="path2516"
     style="opacity:0.3;fill:url(#linearGradient2888);fill-opacity:1;fill-rule:evenodd;stroke:none" />
  <path
     d="m 24.69176,5.749819 c 3.407844,-0.3279886 2.662929,13.130795 2.662929,13.130795 0,0 15.072671,-0.794646 15.476891,1.830382 C 46.438132,17.649427 27.234151,5.0130167 24.69176,5.749819 z"
     id="path4891"
     style="opacity:0.1;fill:black;fill-opacity:1;fill-rule:evenodd;stroke:black;stroke-width:1.43781459;stroke-linecap:butt;stroke-linejoin:round;stroke-miterlimit:4;stroke-opacity:0.44444442;stroke-dasharray:none;display:inline" />
  <path
     d="m 26.118788,5.1879676 c 3.342161,0.6139762 2.990879,11.3912234 2.990879,11.3912234 0,0 13.740898,-0.71114 14.07352,2.46128 C 44.047108,17.173803 33.200563,7.7378902 27.865738,5.613261 27.180237,5.3402556 26.585741,5.1879676 26.118788,5.1879676 z"
     id="path4893"
     style="fill:url(#linearGradient3692);fill-opacity:1;fill-rule:evenodd;stroke:none;display:inline" />
</svg>

<?xml version="1.0" encoding="UTF-8" standalone="no"?>
<!-- Created with Inkscape (http://www.inkscape.org/) -->
<svg id="svg3876" xmlns:rdf="http://www.w3.org/1999/02/22-rdf-syntax-ns#" xmlns="http://www.w3.org/2000/svg" height="48" width="48" version="1.1" xmlns:cc="http://creativecommons.org/ns#" xmlns:xlink="http://www.w3.org/1999/xlink" xmlns:dc="http://purl.org/dc/elements/1.1/">
 <metadata id="metadata67">
  <rdf:RDF>
   <cc:Work rdf:about="">
    <dc:format>image/svg+xml</dc:format>
    <dc:type rdf:resource="http://purl.org/dc/dcmitype/StillImage"/>
   </cc:Work>
  </rdf:RDF>
 </metadata>
 <defs id="defs3878">
  <linearGradient id="linearGradient6602">
   <stop id="stop6604" style="stop-color:#fff" offset="0"/>
   <stop id="stop6606" style="stop-color:#fff;stop-opacity:0" offset="1"/>
  </linearGradient>
  <linearGradient id="linearGradient2888" y2="26.039" gradientUnits="userSpaceOnUse" x2="24.008" gradientTransform="matrix(1.0565 0 0 .99783 -1.3637 -1.9826)" y1="8" x1="17.355">
   <stop id="stop3742-9" style="stop-color:#fff" offset="0"/>
   <stop id="stop3750-9" style="stop-color:#fff;stop-opacity:0" offset=".85613"/>
   <stop id="stop3744-3" style="stop-color:#fff;stop-opacity:0" offset="1"/>
  </linearGradient>
  <linearGradient id="linearGradient2896" y2="1.906" gradientUnits="userSpaceOnUse" x2="36.603" gradientTransform="matrix(.90071 0 0 .83839 2.2852 3.412)" y1="35.296" x1="36.603">
   <stop id="stop9938" style="stop-color:#333" offset="0"/>
   <stop id="stop9940" style="stop-color:#575757" offset="1"/>
  </linearGradient>
  <linearGradient id="linearGradient2898" y2="6.8982" spreadMethod="reflect" gradientUnits="userSpaceOnUse" x2="-28.956" gradientTransform="matrix(.90757 0 0 .84462 50.371 1.2074)" y1="6.8982" x1="-51.09">
   <stop id="stop5235" style="stop-color:#3c3c3c" offset="0"/>
   <stop id="stop5237" style="stop-color:#282828" offset="1"/>
  </linearGradient>
  <radialGradient id="radialGradient2901" xlink:href="#linearGradient6602" gradientUnits="userSpaceOnUse" cy="5.5643" cx="1" gradientTransform="matrix(.95555 0 0 .69715 1.0668 7.8457)" r="23"/>
  <linearGradient id="linearGradient2904" y2="31.983" gradientUnits="userSpaceOnUse" x2="20.104" gradientTransform="matrix(0.959 0 0 1.0656 .98368 1.9503)" y1="-.00049710" x1="20.147">
   <stop id="stop6546" style="stop-color:#f0f0f0" offset="0"/>
   <stop id="stop6548" style="stop-color:#d2d2d2" offset="1"/>
  </linearGradient>
  <radialGradient id="radialGradient2907" xlink:href="#linearGradient6602" gradientUnits="userSpaceOnUse" cy="38.641" cx="24" gradientTransform="matrix(1.8286 -3.144e-8 0 .43815 -19.887 26.069)" r="8"/>
  <linearGradient id="linearGradient2910" y2="93.38" gradientUnits="userSpaceOnUse" x2="320.28" gradientTransform="matrix(.99641 0 0 1.0001 -294.88 -51.013)" y1="86.913" x1="320.28">
   <stop id="stop6622" style="stop-color:#787878" offset="0"/>
   <stop id="stop6624" style="stop-color:#bebebe" offset=".35047"/>
   <stop id="stop6626" style="stop-color:#c8c8c8" offset=".58327"/>
   <stop id="stop6628" style="stop-color:#e6e6e6" offset=".72270"/>
   <stop id="stop6630" style="stop-color:#8c8c8c" offset="1"/>
  </linearGradient>
  <linearGradient id="linearGradient2912" y2="42.361" gradientUnits="userSpaceOnUse" x2="21.686" y1="35.909" x1="21.718">
   <stop id="stop6734" style="stop-color:#505050" offset="0"/>
   <stop id="stop6736" style="stop-color:#a0a0a0" offset=".35047"/>
   <stop id="stop6738" style="stop-color:#aaa" offset=".58327"/>
   <stop id="stop6740" style="stop-color:#bebebe" offset=".72270"/>
   <stop id="stop6742" style="stop-color:#6e6e6e" offset="1"/>
  </linearGradient>
  <radialGradient id="radialGradient2915" gradientUnits="userSpaceOnUse" cy="73.616" cx="6.7027" gradientTransform="matrix(1.9368 0 0 .41503 11.018 12.447)" r="7.2284">
   <stop id="stop10693" offset="0"/>
   <stop id="stop10695" style="stop-opacity:0" offset="1"/>
  </radialGradient>
  <linearGradient id="linearGradient3692" y2="5.4565" gradientUnits="userSpaceOnUse" x2="36.358" gradientTransform="matrix(1.3447 0 0 1.4378 -12.568 2.9626)" y1="8.059" x1="32.892">
   <stop id="stop8591-8" style="stop-color:#fefefe" offset="0"/>
   <stop id="stop8593-0" style="stop-color:#cbcbcb" offset="1"/>
  </linearGradient>
  <radialGradient id="radialGradient2963" gradientUnits="userSpaceOnUse" cy="-2.0645" cx="26.617" gradientTransform="matrix(-1.5695e-8 -.77105 1.2053 0 34.206 42.72)" r="23">
   <stop id="stop2749" style="stop-color:#d78ec1" offset="0"/>
   <stop id="stop2751" style="stop-color:#c564be" offset=".26238"/>
   <stop id="stop2753" style="stop-color:#9d3ea4" offset=".66094"/>
   <stop id="stop2755" style="stop-color:#5e2c73" offset="1"/>
  </radialGradient>
  <linearGradient id="linearGradient2965" y2="2.8765" gradientUnits="userSpaceOnUse" x2="10.014" gradientTransform="matrix(.82625 0 0 .65370 4.0507 3.4654)" y1="44.96" x1="10.014">
   <stop id="stop2759" style="stop-color:#650d5c" offset="0"/>
   <stop id="stop2761" style="stop-color:#5e2c59" offset="1"/>
  </linearGradient>
 </defs>
 <path id="path2589" style="opacity:.5;fill:url(#radialGradient2915)" d="m38 43c0 1.6569-6.268 3-14 3s-14-1.343-14-3 6.268-3 14-3 14 1.343 14 3z"/>
 <path id="path4675" style="stroke-linejoin:round;stroke-width:.99827;stroke-dashoffset:0.5;stroke:url(#linearGradient2912);stroke-linecap:round;enable-background:new;fill:url(#linearGradient2910)" d="m18.489 31.499v7.001c-0.02202 1.8022-1.8685 3.0004-1.8685 3.0004-0.74866 0.08844-1.121 0.44607-1.121 1.0002 0 0.55408 0.50401 1.0001 1.121 1.0001h14.76c0.61695 0 1.121-0.44606 1.121-1.0001 0-0.55408-0.3723-0.91171-1.121-1.0002 0 0-1.8465-1.1982-1.8685-3.0004v-7.001h-11.023z"/>
 <rect id="rect4703" style="opacity:.8;enable-background:new;fill:url(#radialGradient2907)" rx=".44444" ry="0.5" height="1" width="16" y="42" x="16"/>
 <rect id="rect2722" style="stroke-linejoin:round;stroke-dashoffset:0.5;stroke:#aaa;stroke-linecap:round;stroke-width:1.0002;fill:url(#linearGradient2904)" rx="1" ry="1" height="33" width="45" y="2.5001" x="1.5001"/>
 <rect id="rect4642" style="stroke-linejoin:round;stroke-width:1.0003;stroke-dashoffset:0.5;stroke:url(#radialGradient2901);stroke-linecap:round;enable-background:new;fill:none" rx="0" ry="0" height="31" width="43" y="3.5001" x="2.5001"/>
 <path id="path2514-7" style="stroke-linejoin:round;stroke-width:.96124;fill-rule:evenodd;stroke:url(#linearGradient2898);stroke-linecap:round;fill:url(#linearGradient2896)" d="m4.4806 5.494h39.023v27.025h-39.023v-27.025z"/>
 <path id="path2514" style="stroke-linejoin:round;stroke-width:1.0021;fill-rule:evenodd;color:#000000;stroke:url(#linearGradient2965);stroke-linecap:round;fill:url(#radialGradient2963)" d="m4.5 5.5h22.309c2.7899 0.75785 16.691 12.344 16.691 14.16v12.84h-39v-27z"/>
 <path id="path2516" style="opacity:.3;fill:url(#linearGradient2888);fill-rule:evenodd" d="m5 6.0313v17.969c1.8095-0.429 37.406-10.473 38-11.003v-6.997l-38 0.0313z"/>
 <path id="path4891" style="opacity:.1;stroke-linejoin:round;stroke-opacity:.44444;fill-rule:evenodd;stroke:#000;stroke-width:1.4378" d="m24.692 5.7498c3.4078-0.32799 2.6629 13.131 2.6629 13.131s15.073-0.79465 15.477 1.8304c3.606-3.062-15.598-15.698-18.14-14.961z"/>
 <path id="path4893" style="fill:url(#linearGradient3692);fill-rule:evenodd" d="m26.119 5.188c3.3422 0.61398 2.9909 11.391 2.9909 11.391s13.741-0.71114 14.074 2.4613c0.863-1.866-9.983-11.302-15.318-13.427-0.686-0.2727-1.28-0.425-1.747-0.425z"/>
</svg>
